X:216
T:Yaw, Yaw, Yaw! (Ja, Ja, Ja!)
M:C|
L:1/8
Q:1/4=120
K:G
DDD|\
G/G/G G/G/G GdBG|A2D2 D2DD|
A/A/A A/A/A ABcd|B2G2 G2AB|
cccc cedc|BBBB BdcA|G4 F4|G4 z||
